X:1
T: Lockers
C:
R:Reel
Q: 232
K:Bb
M:4/4
L:1/8
|:F2|BA Bc Bc de|f=e fg fd Bd|f=e fg fd cB|Ac BG Fe dc|
BA Bc Bc de|f=e fg fa gf|=ef ga bg eg|fc ag f2:|
|:cB|Af =ef df Bf|Af =ef df Bf|gf ed ed cB|Ac BG F2 GA|
Bf dB Ae cA|Bf dB Ae cA|Bb ag ((3fgf) ((3edc) |B2 b2 B2:|
